X: 148
T: 148. Uns ist ein Kindlein heut geborn
N: Derived from chor148.krn
C: Johann Sebastian Bach
%%abc-version 2.0
%%abcx-abcm2ps-target-version 5.9.1 (29 Sep 2008)
%%abc-creator hum2abc beta
%%abcx-conversion-date 2019/03/11 17:28:18
%%abc-edited-by Craig Stuart Sapp
%%humdrum-veritas 3199598592
%%humdrum-veritas-data 2025442586
%%
%%barnumbers 0
L: 1/4
M: C
%%staves [1 2 3 4]
V: 1 clef=treble
V: 2 clef=treble
V: 3 clef=treble-8
V: 4 clef=bass
K: G
[V:1] B [I:setbarnb 1]| 
[V:2] G | 
[V:3] d | 
[V:4] G,, | 
[V:1] B/c/dBG | 
[V:2] GAGG | 
[V:3] dddd/c/ | 
[V:4] G,F,G,E, | 
[V:1] AB!fermata!cB | 
[V:2] =F/E/D!fermata!ED- | 
[V:3] cG!fermata!GG | 
[V:4] =F,G,!fermata!C,G,, | 
[V:1] AGG3/A/ | 
[V:2] D/C/B,E2 | 
[V:3] ^FGc2 | 
[V:4] D,E,/D,/ C,/D,/E,/F,/ | 
[V:1] BBA/G/A | 
[V:2] DDD-D/C/ | 
[V:3] B/A/GGF | 
[V:4] G,B,,/C,/D,D, | 
[V:1] !fermata!G3 :|]  
[V:2] !fermata!B,3 :|]  
[V:3] !fermata!D3 :|]  
[V:4] !fermata!G,,3 :|]  
[V:1] B [I:setbarnb 6]| 
[V:2] G | 
[V:3] d | 
[V:4] G,, | 
[V:1] ABGE | 
[V:2] FFE/=D/^C | 
[V:3] d/c/BBA | 
[V:4] D,^D,E,A,/G,/ | 
[V:1] FG!fermata!AB | 
[V:2] D3/^C/!fermata!D^D | 
[V:3] AG!fermata!FF | 
[V:4] F,E,!fermata!=D,B,, | 
[V:1] GGG3/A/ | 
[V:2] B,E=DE/F/ | 
[V:3] GcB/c/B/A/ | 
[V:4] E,/=D,/E,/F,/ G,/A,/G,/F,/ | 
[V:1] BBA/G/A | 
[V:2] GDD3/C/ | 
[V:3] GG2F | 
[V:4] E,/B,,/C,D,2 | 
[V:1] !fermata!G3 |]  
[V:2] !fermata!B,3 |]  
[V:3] !fermata!D3 |]  
[V:4] !fermata!G,,3 |]  



